Icons/Line/si_Settings_applications.svg

<svg width="24" height="24" viewBox="0 0 24 24" fill="none" xmlns="http://www.w3.org/2000/svg">
<g clip-path="url(#clip0_22_113)">
<path d="M20.0667 1H3.93333C2.3133 1 1 2.3133 1 3.93333V20.0667C1 21.6867 2.3133 23 3.93333 23H20.0667C21.6867 23 23 21.6867 23 20.0667V3.93333C23 2.3133 21.6867 1 20.0667 1Z" stroke="black" stroke-width="1.5" stroke-miterlimit="10"/>
<path d="M18.5 10.5H16.75C16.66 10.22 16.55 9.96 16.42 9.7L17.66 8.46C18.25 7.87 18.25 6.92 17.66 6.34C17.07 5.76 16.12 5.75 15.54 6.34L14.3 7.58C14.05 7.45 13.78 7.34 13.5 7.25V5.5C13.5 4.67 12.83 4 12 4C11.17 4 10.5 4.67 10.5 5.5V7.25C10.22 7.34 9.96 7.45 9.7 7.58L8.46 6.34C7.87 5.75 6.92 5.75 6.34 6.34C5.76 6.93 5.75 7.88 6.34 8.46L7.58 9.7C7.45 9.95 7.34 10.22 7.25 10.5H5.5C4.67 10.5 4 11.17 4 12C4 12.83 4.67 13.5 5.5 13.5H7.25C7.34 13.78 7.45 14.04 7.58 14.3L6.34 15.54C5.75 16.13 5.75 17.08 6.34 17.66C6.93 18.25 7.88 18.25 8.46 17.66L9.7 16.42C9.95 16.55 10.22 16.66 10.5 16.75V18.5C10.5 19.33 11.17 20 12 20C12.83 20 13.5 19.33 13.5 18.5V16.75C13.78 16.66 14.04 16.55 14.3 16.42L15.54 17.66C16.13 18.25 17.08 18.25 17.66 17.66C18.25 17.07 18.25 16.12 17.66 15.54L16.42 14.3C16.55 14.05 16.66 13.78 16.75 13.5H18.5C19.33 13.5 20 12.83 20 12C20 11.17 19.33 10.5 18.5 10.5V10.5Z" stroke="black" stroke-width="1.5" stroke-linecap="round" stroke-linejoin="round"/>
<path d="M12 14C13.1046 14 14 13.1046 14 12C14 10.8954 13.1046 10 12 10C10.8954 10 10 10.8954 10 12C10 13.1046 10.8954 14 12 14Z" stroke="black" stroke-width="1.5" stroke-miterlimit="10"/>
</g>
<defs>
<clipPath id="clip0_22_113">
<rect width="24" height="24" fill="white"/>
</clipPath>
</defs>
</svg>

<svg width="24" height="24" fill="none" xmlns="http://www.w3.org/2000/svg"><g clip-path="url(#a)" stroke="#000" stroke-width="1.5"><path d="M20.067 1H3.933A2.933 2.933 0 0 0 1 3.933v16.134A2.933 2.933 0 0 0 3.933 23h16.134A2.933 2.933 0 0 0 23 20.067V3.933A2.933 2.933 0 0 0 20.067 1Z" stroke-miterlimit="10"/><path d="M18.5 10.5h-1.75c-.09-.28-.2-.54-.33-.8l1.24-1.24c.59-.59.59-1.54 0-2.12-.59-.58-1.54-.59-2.12 0L14.3 7.58c-.25-.13-.52-.24-.8-.33V5.5c0-.83-.67-1.5-1.5-1.5s-1.5.67-1.5 1.5v1.75c-.28.09-.54.2-.8.33L8.46 6.34a1.49 1.49 0 0 0-2.12 0c-.58.59-.59 1.54 0 2.12L7.58 9.7c-.13.25-.24.52-.33.8H5.5c-.83 0-1.5.67-1.5 1.5s.67 1.5 1.5 1.5h1.75c.09.28.2.54.33.8l-1.24 1.24a1.49 1.49 0 0 0 0 2.12c.59.59 1.54.59 2.12 0l1.24-1.24c.25.13.52.24.8.33v1.75c0 .83.67 1.5 1.5 1.5s1.5-.67 1.5-1.5v-1.75c.28-.09.54-.2.8-.33l1.24 1.24c.59.59 1.54.59 2.12 0 .59-.59.59-1.54 0-2.12l-1.24-1.24c.13-.25.24-.52.33-.8h1.75c.83 0 1.5-.67 1.5-1.5s-.67-1.5-1.5-1.5v0Z" stroke-linecap="round" stroke-linejoin="round"/><path d="M12 14a2 2 0 1 0 0-4 2 2 0 0 0 0 4Z" stroke-miterlimit="10"/></g><defs><clipPath id="a"><path fill="#fff" d="M0 0h24v24H0z"/></clipPath></defs></svg>
